packages/icons/svg/Fill/timer.svg

<svg fill="none" height="24" viewBox="0 0 24 24" width="24" xmlns="http://www.w3.org/2000/svg"><path clip-rule="evenodd" d="m15 14.0001h-3c-.552 0-1-.447-1-1v-3c0-.55304.448-1.00004 1-1.00004s1 .447 1 1.00004v2h2c.552 0 1 .447 1 1s-.448 1-1 1m-2.012-9.9421c.002-.021.012-.037.012-.058v-1h1c.552 0 1-.447 1-1s-.448-1-1-1h-4c-.552 0-1 .447-1 1s.448 1 1 1h1v1c0 .021.01.037.012.058-4.499.494-8.012 4.314-8.012 8.942 0 4.963 4.038 9 9 9s9-4.037 9-9c0-4.628-3.513-8.448-8.012-8.942" fill="#6b7280" fill-rule="evenodd"/></svg>

<svg width="24" height="24" viewBox="0 0 24 24" fill="none" xmlns="http://www.w3.org/2000/svg">
<g id="Icon/Fill/timer">
<path id="Mask" fill-rule="evenodd" clip-rule="evenodd" d="M15 14H12C11.448 14 11 13.553 11 13V10C11 9.447 11.448 9 12 9C12.552 9 13 9.447 13 10V12H15C15.552 12 16 12.447 16 13C16 13.553 15.552 14 15 14ZM12.988 4.058C12.99 4.037 13 4.021 13 4V3H14C14.552 3 15 2.553 15 2C15 1.447 14.552 1 14 1H10C9.448 1 9 1.447 9 2C9 2.553 9.448 3 10 3H11V4C11 4.021 11.01 4.037 11.012 4.058C6.513 4.552 3 8.372 3 13C3 17.963 7.038 22 12 22C16.962 22 21 17.963 21 13C21 8.372 17.487 4.552 12.988 4.058Z" fill="#000000"/>
</g>
</svg>
